src/assets/directions-number-icons.svg

<svg width="22" height="71" viewBox="0 0 22 71" fill="none" xmlns="http://www.w3.org/2000/svg">
<g clip-path="url(#clip0_486_3183)">
<path d="M10.8696 21.6463C16.8727 21.6463 21.7391 16.8006 21.7391 10.8232C21.7391 4.8457 16.8727 0 10.8696 0C4.86647 0 0 4.8457 0 10.8232C0 16.8006 4.86647 21.6463 10.8696 21.6463Z" fill="#024EC9"/>
<path d="M11.1313 70.9999C17.1344 70.9999 22.0009 66.1542 22.0009 60.1767C22.0009 54.1992 17.1344 49.3535 11.1313 49.3535C5.12819 49.3535 0.261719 54.1992 0.261719 60.1767C0.261719 66.1542 5.12819 70.9999 11.1313 70.9999Z" fill="#024EC9"/>
<path d="M11.043 22.9453V48.1417" stroke="#024EC9"/>
<path d="M12.1564 6.74561V14.8059H9.95876V8.7607H9.91137L8.14062 9.81548V7.9578L10.1327 6.74561H12.1564Z" fill="white"/>
<path d="M8.18935 64.3331V62.7588L11.2091 60.2715C11.4094 60.1062 11.5807 59.9514 11.7229 59.8071C11.8679 59.6601 11.9786 59.5093 12.0549 59.3545C12.134 59.1997 12.1735 59.0278 12.1735 58.8389C12.1735 58.6317 12.1288 58.4545 12.0392 58.3076C11.9522 58.1606 11.831 58.0478 11.6755 57.9691C11.5201 57.8878 11.3409 57.8471 11.138 57.8471C10.9351 57.8471 10.7559 57.8878 10.6004 57.9691C10.4476 58.0504 10.329 58.1698 10.2447 58.3272C10.1603 58.4847 10.1182 58.6763 10.1182 58.9019H8.03125C8.03125 58.3351 8.15905 57.8471 8.41465 57.4378C8.67025 57.0285 9.03128 56.7136 9.49763 56.4933C9.96407 56.2728 10.5109 56.1626 11.138 56.1626C11.7862 56.1626 12.3475 56.2662 12.8218 56.4735C13.2987 56.6782 13.6663 56.9668 13.9245 57.3394C14.1854 57.712 14.3158 58.1489 14.3158 58.65C14.3158 58.9596 14.2513 59.2679 14.1222 59.5748C13.993 59.8793 13.7612 60.2164 13.4265 60.5863C13.0919 60.9563 12.6162 61.3971 11.9996 61.9088L11.2408 62.5385V62.5857H14.4028V64.3331H8.18935Z" fill="white"/>
</g>
<defs>
<clipPath id="clip0_486_3183">
<rect width="22" height="71" fill="white"/>
</clipPath>
</defs>
</svg>

<svg width="22" height="71" fill="none" xmlns="http://www.w3.org/2000/svg"><g clip-path="url(#clip0_486_3183)"><path d="M10.87 21.646c6.003 0 10.87-4.845 10.87-10.823C21.74 4.846 16.872 0 10.87 0 4.866 0 0 4.846 0 10.823c0 5.978 4.866 10.823 10.87 10.823zM11.131 71c6.003 0 10.87-4.846 10.87-10.823 0-5.978-4.867-10.824-10.87-10.824-6.003 0-10.87 4.846-10.87 10.824C.262 66.154 5.129 71 11.132 71z" fill="#024EC9"/><path d="M11.043 22.945v25.197" stroke="#024EC9"/><path d="M12.156 6.746v8.06H9.96V8.76h-.05L8.14 9.814V7.958l1.992-1.212h2.023zM8.19 64.333V62.76l3.02-2.487c.2-.166.37-.32.513-.465.145-.147.256-.298.332-.453.079-.154.119-.326.119-.515a.998.998 0 00-.135-.531.87.87 0 00-.364-.339 1.143 1.143 0 00-.537-.122c-.203 0-.382.04-.538.122a.85.85 0 00-.355.358 1.2 1.2 0 00-.127.575H8.031c0-.567.128-1.055.384-1.464.255-.41.616-.724 1.083-.945.466-.22 1.013-.33 1.64-.33.648 0 1.21.103 1.684.31.477.205.844.494 1.103.866.26.373.39.81.39 1.311 0 .31-.064.618-.193.925-.129.304-.36.641-.695 1.011-.335.37-.81.811-1.427 1.323l-.76.63v.047h3.163v1.747H8.189z" fill="#fff"/></g><defs><clipPath id="clip0_486_3183"><path fill="#fff" d="M0 0h22v71H0z"/></clipPath></defs></svg>
